assets/images/clarity_cog-solid.svg

<svg width="32" height="32" viewBox="0 0 32 32" fill="none" xmlns="http://www.w3.org/2000/svg">
<path d="M28.9511 13.9733L25.9733 13.0844C25.7675 12.3656 25.4843 11.6712 25.1289 11.0133L26.5867 8.28442C26.6414 8.18141 26.6614 8.06351 26.6438 7.94822C26.6262 7.83293 26.5719 7.72639 26.4889 7.64442L24.3645 5.51108C24.2825 5.42812 24.1759 5.37381 24.0607 5.35619C23.9454 5.33858 23.8275 5.35861 23.7245 5.41331L21.0133 6.8622C20.349 6.48945 19.6455 6.19134 18.9156 5.97331L18.0267 3.03108C17.9891 2.92265 17.918 2.82895 17.8238 2.76346C17.7296 2.69797 17.617 2.66407 17.5022 2.66664H14.4978C14.3824 2.66718 14.2701 2.70454 14.1774 2.77328C14.0847 2.84203 14.0163 2.93857 13.9822 3.04886L13.0933 5.9822C12.3574 6.19906 11.6478 6.4972 10.9778 6.87108L8.31113 5.43108C8.20812 5.37638 8.09022 5.35636 7.97493 5.37397C7.85964 5.39158 7.7531 5.4459 7.67113 5.52886L5.51113 7.63553C5.42816 7.7175 5.37385 7.82404 5.35623 7.93933C5.33862 8.05462 5.35865 8.17252 5.41335 8.27553L6.85335 10.9422C6.48007 11.6094 6.18195 12.3159 5.96446 13.0489L3.02224 13.9378C2.91195 13.9718 2.8154 14.0402 2.74666 14.1329C2.67791 14.2256 2.64055 14.3379 2.64001 14.4533V17.4577C2.64055 17.5732 2.67791 17.6854 2.74666 17.7781C2.8154 17.8709 2.91195 17.9392 3.02224 17.9733L5.98224 18.8622C6.2021 19.5829 6.50017 20.2774 6.87113 20.9333L5.41335 23.7244C5.35865 23.8274 5.33862 23.9453 5.35623 24.0606C5.37385 24.1759 5.42816 24.2824 5.51113 24.3644L7.63557 26.4889C7.71754 26.5718 7.82408 26.6261 7.93938 26.6438C8.05467 26.6614 8.17256 26.6413 8.27557 26.5866L11.0222 25.12C11.672 25.4706 12.3574 25.7507 13.0667 25.9555L13.9556 28.9511C13.9896 29.0614 14.058 29.1579 14.1507 29.2267C14.2435 29.2954 14.3557 29.3328 14.4711 29.3333H17.4756C17.591 29.3328 17.7032 29.2954 17.796 29.2267C17.8887 29.1579 17.9571 29.0614 17.9911 28.9511L18.88 25.9466C19.5833 25.7407 20.2626 25.4606 20.9067 25.1111L23.6711 26.5866C23.7741 26.6413 23.892 26.6614 24.0073 26.6438C24.1226 26.6261 24.2292 26.5718 24.3111 26.4889L26.4356 24.3644C26.5185 24.2824 26.5729 24.1759 26.5905 24.0606C26.6081 23.9453 26.588 23.8274 26.5333 23.7244L25.0578 20.9689C25.411 20.3224 25.6941 19.64 25.9022 18.9333L28.8978 18.0444C29.0081 18.0104 29.1046 17.942 29.1734 17.8493C29.2421 17.7565 29.2795 17.6443 29.28 17.5289V14.4978C29.2853 14.3872 29.2566 14.2777 29.1978 14.184C29.139 14.0902 29.0529 14.0167 28.9511 13.9733V13.9733ZM16 20.8889C15.0331 20.8889 14.0879 20.6021 13.2839 20.0649C12.4799 19.5277 11.8533 18.7642 11.4833 17.8709C11.1132 16.9775 11.0164 15.9946 11.2051 15.0462C11.3937 14.0978 11.8593 13.2267 12.543 12.543C13.2268 11.8593 14.0979 11.3937 15.0462 11.205C15.9946 11.0164 16.9776 11.1132 17.8709 11.4832C18.7642 11.8533 19.5278 12.4799 20.065 13.2839C20.6022 14.0878 20.8889 15.033 20.8889 16C20.8889 17.2966 20.3738 18.5401 19.457 19.4569C18.5401 20.3738 17.2966 20.8889 16 20.8889V20.8889Z" fill="#3F3F40"/>
</svg>

<svg width="32" height="32" fill="none" xmlns="http://www.w3.org/2000/svg"><path d="M28.951 13.973l-2.978-.889a10.354 10.354 0 00-.844-2.07l1.458-2.73a.542.542 0 00-.098-.64l-2.125-2.133a.543.543 0 00-.64-.098l-2.71 1.45a10.327 10.327 0 00-2.098-.89l-.89-2.942a.543.543 0 00-.524-.364h-3.004a.542.542 0 00-.516.382l-.889 2.933c-.736.217-1.445.515-2.115.89L8.31 5.431a.542.542 0 00-.64.097L5.51 7.635a.542.542 0 00-.098.64l1.44 2.666a10.337 10.337 0 00-.889 2.107l-2.942.889a.542.542 0 00-.382.515v3.005a.542.542 0 00.382.515l2.96.89c.22.72.518 1.414.89 2.07l-1.459 2.791a.542.542 0 00.098.64l2.125 2.125a.543.543 0 00.64.098l2.746-1.467c.65.35 1.335.63 2.045.835l.889 2.996a.542.542 0 00.515.382h3.005a.542.542 0 00.515-.382l.889-3.004a10.342 10.342 0 002.027-.836l2.764 1.476a.542.542 0 00.64-.098l2.125-2.125a.543.543 0 00.097-.64l-1.475-2.755c.353-.647.636-1.329.844-2.036l2.996-.889a.542.542 0 00.382-.515v-3.031a.542.542 0 00-.329-.525zM16 20.89a4.889 4.889 0 110-9.778 4.889 4.889 0 010 9.778z" fill="#3F3F40"/></svg>
